X:1
T:White Christmas
T:White Christmas
T:Irving Berlin
T:septentrionensemblevocal@gmail.com
T:septentrionensemblevocal@gmail.com
T:septentrionensemblevocal@gmail.com
T:septentrionensemblevocal@gmail.com
T:septentrionensemblevocal@gmail.com
T:septentrionensemblevocal@gmail.com
C:Irving Berlin
Z:septentrionensemblevocal@gmail.com
%%score [ 1 2 3 4 ]
L:1/8
Q:1/4=75
M:4/4
K:Eb
V:1 treble nm="Soprano" snm="S."
V:2 treble nm="Alto" snm="A."
V:3 treble-8 nm="Ténor" snm="T."
V:4 bass nm="Bass" snm="B."
V:1
 d2 c2 B2 =B2 | c2 BA B2 G2 | A2 F2 G2 E2 | !fermata!F6[Q:1/4=80] E2 | F2 FF- FG A2 | %5
w: Lou lou lou lou|lou lou lou lou lou|lou lou lou lou|lou The|sun is shin ~~ ning, the|
w: |||* La|nuit est plei- * ne de|
w: |||* Lor-|sque dé- cem- * bre lan-|
 B B2 B- B3 c | (3d2 e2 d2 c2 d2 | e6 G2 | (3A2 A2 A2 c2 =B2 | _B6 G2 | (3A2 A2 A2 c2 D2 | E8 | %12
w: grass is green, * the|or- ange and palm tree|sway. There's|nev- er been such a|day in|Bev- er- ly Hills L|A|
w: chants jo- yeux _ le|bois cra- que dans le|feu La|table est dé- jà gar-|nie Tout|est prêt pour mes a-|mis|
w: çait au vent _ l'o-|deur des ma- rrons brû-|lants J'a-|tten- dais, trem- blant un|peu l'ins-|tant des ca- deaux jo-|yeux|
 z2 F2 F2 F2 | (3F2 G2 F2 E2 F2 | (G8 | G8) | z2 =A2 A2 A2 | (3=A2 B2 A2 G2 A2 | (B8 | B6) z2 |: %20
w: But it's De-|cem- ber the twen- ty|fourth|_|and I am|long- ging to be up|north|_|
w: et j'a- ttends|l'heure où ils vont ve-|nir|_|En é- cou-|tant tous mes sou- ve-|nirs|_|
w: et je me-|ttais mes pe- tits sou-|liers|_|sous le man-|teau de la che- mi-|née|_|
[Q:1/4=120] G8 | A2 G2 ^F2 G2 | A8 | =A2 B4 z2 | z2 c2 d2 e2 | f2 e2 d2 c2 | B8- | B4 E2 F2 | %28
w: I'm|drea- ming of a|white|Christ- mas|just like the|ones we used to|know|_ When the|
w: Oh!|quand j'en- tends chan-|ter|no- ël|J'ai- me re-|voir mes joies d'en-|fant|_ Le sa-|
w: ||||||||
 G4 G4 | G2 c4 B2 | E4 E4 | E2 B4 A2 | G8 | A2 A2 F2 E2 | F8- | F4 F4 | G8 | A2 G2 ^F2 G2 | A8 | %39
w: tree- tops|glis- ten, and|chil- dren|lis- ten, to|hear|sleigh- bells in the|snow|_ Ô|I'm|drea- ming of a|white|
w: pin scin-|ti- llant la|nei- ge|d'ar- gent No-|ël|mon beau rê- ve|blanc|_ _|Oh!|quand j'en- tends so-|nner|
w: |||||||||||
 =A2 B4 z2 | z2 c2 d2 e2 | f2 e2 d2 c2 | B8- | B4 E2 F2 | G4 G4 | G2 c4 B2 | e8- | e4 E2 F2 | %48
w: Christ- mas|with ev'- ry|Christ- mas- card I|write|_ May your|days be|mer- ry and|bright,|_ And may|
w: au ciel|L'heure où le|bon viei- llard des-|cend|_ Je re-|vois tes|yeux clairs Ma-|man|_ et je|
w: |||||||||
 G4 G4 | c3 D D2 D2 |1 E4 (B2 d2 | A2 c2 F2 ^F2) :|2[Q:1/4=70] (E2 G2) (A2 c2) | c2 e2 [eg]4 |] %54
w: all your|Christ- mas- ses be|white. Ah _|_ _ _ _|white _ be _|white. be white|
w: songe à|d'au- tres No- ël|blanc Ah _|_ _ _ _|blanc _ No _|ël No- ël|
w: ||||||
V:2
 B2 A2 A2 G2 | G2 F2 F2 =E2 | GF E2 E2 E2 | B,2 D2 !fermata!F2 E2 | E2 ED- DD D2 | F F2 E- E3 B | %6
w: Lou lou lou lou|lou lou lou lou|lou lou lou lou lou|lou * * The|sun is shin ~~ ning, the|grass is green, * the|
w: |||* * * La|nuit est plei- * ne de|chants jo- yeux _ le|
w: |||* * * Lor-|sque dé- cem- * bre lan-|çait au vent _ l'o-|
 (3A2 A2 A2 A2 ^F2 | =G6 G2 | (3E2 E2 E2 G2 F2 | F4 =E4 | (3_E2 E2 E2 E2 D2 | B,8 | z2 C2 C2 C2 | %13
w: or- ange and palm tree|sway. There's|nev- er been such a|such day|Bev- er- ly Hills L|A|But it's De-|
w: bois cra- que dans le|feu La|table est dé- jà gar-|nie Tout|est prêt pour mes a-|mis|et j'a- ttends|
w: deur des ma- rrons brû-|lants J'a-|tten- dais, trem- blant un|peu _|tant des ca- deaux jo-|yeux|et je me-|
 (3_C2 C2 C2 C2 C2 | =C4 D4 | D4 E4 | z2 E2 E2 E2 | (3D2 D2 D2 E2 D2 | D3 z =E4 | %19
w: cem- ber the twen- ty|fourth _|_ _|and I am|long- ging to be up|north, I'm|
w: l'heure où ils vont ve-|nir ou|_ _|En é- cou-|tant tous mes sou- ve-|nirs Ouuu|
w: ttais mes pe- tits sou-|liers ou|_ _|sous le man-|teau de la che- mi-|née Ouuu|
 _E4 !fermata!D2 z2 |: E8 | F2 =E2 ^D2 E2 | _E8 | =E2 F4 z2 | A4 A2 A2 | A2 A2 F2 _G2 | =G8- | %27
w: long *|I'm|drea- ming of a|white|Christ- mas|just like *|ones we used to|know|
w: _ _|Oh!|quand j'en- tends chan-|ter|no- ël|J'ai- me re-|voir mes joies d'en-|fant|
w: _ _||||||||
 G4 E2 D2 | E2 B,2 DE D2 | F2 F4 _F2 | E4 E4 | E2 E4 D2 | E8 | E2 E2 D2 C2 | E4 D2 C2 | %35
w: _ When the|tree- * * * tops|glis- ten, and|chil- dren|lis- ten, to|hear|sleigh- bells in the|snow _ _|
w: _ Le sa-|pin _ _ _ scin-|ti- llant la|nei- ge|d'ar- gent No-|ël|mon beau rê- ve|blanc mon No-|
w: ||||||||
 D2 B,2 (C2 D2) | E8 | F2 =E2 ^D2 E2 | _E8 | =E2 F4 z2 | A4 A2 A2 | A2 A2 F2 ^F2 | G8- | G4 E2 D2 | %44
w: _ _ Ô _|I'm|drea- ming of a|white|Christ- mas|with ev'- ry|Christ- mas- card I|write|_ May your|
w: ël- * blanc _|Oh!|quand j'en- tends so-|nner|au ciel|L'heure où le|bon viei- llard des-|cend|_ Je re-|
w: |||||||||
 E2 B,2 DE D2 | F2 F4 _F2 | E2 B2 (A2 G2) | ((B2 A2)) E2 E2 | E4 =E4 | F3 B, B,2 B,2 |1 B,4 (E4 | %51
w: days * be _ _|mer- ry and|bright, * be _|bright _ And may|all your|Christ- mas- ses be|white. Ah|
w: vois _ tes _ _|yeux clairs Ma-|man Ma _ _|man _ et je|songe à|d'au- tres No- ël|blanc Ah|
w: |||||||
 E4 D4) :|2 ((B,2 E2)) (E2 A2) | =A2 B2 B4 |] %54
w: _ _|whi- te, be _|white. be white|
w: _ _|blanc * No _|ël No- ël|
w: |||
V:3
 g2 f2 f2 e2 | e2 e2 edd_d | c2 c2 dc=Bc | !fermata!A6 e2 | c2 cc- cB B2 | B B2 B- B3 B | %6
w: Lou lou lou lou|lou lou lou lou lou lou|lou lou lou lou lou lou|lou The|sun is shin ~~ ning, the|grass is green, * the|
w: |||* La|nuit est plei- * ne de|chants jo- yeux _ le|
w: |||* Lor-|sque dé- cem- * bre lan-|çait au vent _ l'o-|
 (3B2 c2 B2 e2 _c2 | (B2 c2 B2) _d2 | (3c2 c2 c2 =d2 d2 | d4 _d2 B2 | (3c2 c2 c2 A2 A2 | G8 | %12
w: or- ange and palm tree|sway. * * There's|nev- er been such a|such day in|Bev- er- ly Hills L|A|
w: bois cra- que dans le|feu _ _ La|table est dé- jà gar-|nie Tout _|est prêt pour mes a-|mis|
w: deur des ma- rrons brû-|lants _ _ J'a-|tten- dais, trem- blant un|peu _ l'ins-|tant des ca- deaux jo-|yeux|
 z2 A2 A2 A2 | (3A2 A2 A2 A2 A2 | G8 | B4 c4 | z2 c2 c2 c2 | (3c2 c2 c2 c2 c2 | =A2 G z G4 | %19
w: But it's De-|cem- ber the twen- ty|fourth||and I am|long- ging to be up|north _ I'm|
w: et j'a- ttends|l'heure où ils vont ve-|nir|ou _|En é- cou-|tant tous mes sou- ve-|nirs _ Ouuu|
w: et je me-|ttais mes pe- tits sou-|liers|ou _|sous le man-|teau de la che- mi-|née _ Ouuu|
 G4 !fermata!A2 z2 |: B8 | c2 c2 c2 c2 | c8 | ^c2 d4 z2 | e4 B2 c2 | d2 c2 d2 =e2 | =f4 d2 c2 | %27
w: long _|I'm|drea- ming of a|white|Christ- mas|just like the|ones we used to|know, _ _|
w: _ _|Oh!|quand j'en- tends chan-|ter|no- ël|J'ai- me re-|voir mes joies d'en-|fant ou _|
w: _ _||||||||
 B4 c2 _c2 | B4 B4 | _d2 d4 d2 | c4 c4 | _c2 c4 c2 | B2 e2 cB G2 | c2 B2 =A2 A2 | c4 B2 _A2 | %35
w: _ When the|tree- tops|glis- ten, and|chil- dren|lis- ten, to|hear _ _ _ _|sleigh- bells in the|snow _ _|
w: _ Le sa-|pin scin-|ti- llant la|nei- ge|d'ar- gent No-|ël ou _ _ _|mon beau rê- ve|blanc mon No-|
w: ||||||||
 A2 G2 ^F2 A2 | B8 | c2 c2 c2 c2 | c8 | ^c2 d4 z2 | e4 B2 c2 | d2 c2 d2 =e2 | f4 d2 c2 | %43
w: _ _ Ô _|I'm|drea- ming of a|white|Christ- mas|with ev'- ry|Christ- mas- card I|write, that I|
w: ël- * blanc _|Oh!|quand j'en- tends so-|nner|au ciel|L'heure où le|bon viei- llard des-|cend ou _|
w: ||||||||
 B4 c2 _c2 | B4 B4 | _d2 d4 d2 | c4 c4 | _c4 c2 c2 | _B2 B2 _d2 cB | A3 A G2 A2 |1 G4 G4 | %51
w: write May your|days be|mer- ry and|bright, be|bright And may|all * * your *|Christ- mas- ses be|white Ah|
w: _ Je re-|vois tes|yeux clairs Ma-|man Ma-|man et je|son- ge à _ _|d'au- tres No- ël|blanc Ah|
w: ||||||||
 c4 _c4 :|2 G2 ^F2 =F4 | B2 A2 G4 |] %54
w: |white _ be|white. be white|
w: _ _|blanc _ No-|ël No- ël|
w: |||
V:4
 E,2 E,2 C,2 C,2 | A,,2 _C,2 G,,2 B,,2 | F,,2 A,,2 =A,,4 | !fermata!_B,,6 E,2 | %4
w: Lou lou lou lou|lou lou lou lou|lou lou lou|lou The|
w: |||* La|
w: |||* Lor-|
 A,2 A,A,- A,A, A,2 | G, G,2 G,- G,3 E, | (3F,2 F,2 F,2 B,2 A,2 | (G,4 E,2) =E,2 | %8
w: lou is shin ~~ ning, the|grass is green, * the|or- ange and palm tree|sway. * There's|
w: nuit est plei- * ne de|chants jo- yeux _ le|bois cra- que dans le|feu _ La|
w: sque dé- cem- * bre lan-|çait au vent _ l'o-|deur des ma- rrons brû-|lants _ J'a-|
 (3F,2 F,2 F,2 A,2 A,2 | G,4 C,2 C,2 | (3F,2 F,2 F,2 B,,2 B,,2 | E,2 B,,2 C,E,G,F, | %12
w: nev- er been such a|day _ in|Bev- er- ly Hills L|A ou _ _ _ _|
w: table est dé- jà gar-|nie Tout _|est prêt pour mes a-|mis ou _ _ _ _|
w: tten- dais, trem- blant un|peu _ l'ins-|tant des ca- deaux jo-|yeux ou _ _ _ _|
 F,2 F,2 F,2 F,2 | (3B,,2 B,,2 B,,2 B,,2 B,,2 | B,,8 | =A,,6 C,D, | E,2 G,2 G,2 G,2 | %17
w: _ But it's De-|* ber the twen- ty|fourth||* and I am|
w: _ et j'a ttends|l'heure où ils vont ve-|nir|ou _ _|_ En é- cou-|
w: _ et je me-|ttais mes pe- tits sou-|liers|ou _ _|_ sous le man-|
 (3_G,2 G,2 G,2 =E,2 ^F,2 | G,3 z _D,4 | _D,2 C,2 !fermata!B,,2 z2 |: E,4 D,4 | %21
w: long- ging to be up|north I'm|long _ _|I'm *|
w: tant tous mes sou- ve-|nirs Ouuu|_ _ _|Oh! *|
w: teau de la che- mi-|née Ouuu|_ _ _||
 C,2 B,,2 =A,,2 B,,2 | C,2 F,2 A,2 F,2 | ^F,2 G,4 z2 | A,4 A,2 A,2 | A,2 A,2 B,,2 B,,2 | E,8- | %27
w: drea- ming of a|white _ _ _|Christ- mas|just like the|ones we used to|know|
w: quand j'en- tends chan-|ter ou _ _|no ël|J'ai- me re-|voir mes joies d'en-|fant|
w: ||||||
 E,4 z4 | E,2 E,4 B,,2 | E,2 E,4 E,2 | (A,2 B,2) (A,2 G,2) | F,2 F,4 F,2 | B,,8 | %33
w: _|tree- * tops|glis- ten, and|chil _ dren _|lis- ten, to|hear|
w: _|sa- pin scin-|ti- llant la|nei- * ge *|d'ar- gent No-|ël|
w: ||||||
 B,,2 B,,2 B,,2 B,,2 | B,,8- | B,,4 G,2 F,2 | E,4 D,4 | C,2 B,,2 =A,,2 B,,2 | C,2 F,2 A,2 F,2 | %39
w: sleigh- bells in the|snow|_ Ô _|I'm *|drea- ming of a|white _ _ _|
w: mon beau rê- ve|blanc|_ blanc _|Oh! *|quand j'en- tends so-|nner ou _ _|
w: ||||||
 ^F,2 G,4 z2 | A,4 A,2 A,2 | A,2 A,2 B,,2 B,,2 | E,8- | E,4 z4 | E,2 E,4 B,,2 | E,2 E,4 E,2 | %46
w: Christ- mas|with ev'- ry|Christ- mas- card I|write|_|days * be|mer- ry and|
w: au ciel|L'heure où le|bon viei- llard des-|cend|_|re- vois tes|yeux clairs Ma-|
w: |||||||
 (A,,4 C,2 E,2 | A,4) z4 | z8 | B,,3 B,, B,,2 B,,2 |1 E,4 (E,4 | F,4 B,4) :|2 E,4 B,,4 | %53
w: bright, * be|bright||Christ- mas- ses be|white Ah|_ _|white- be|
w: man * Ma-|man||d'au- tres No- ël|blanc Ah|_ _|blanc No|
w: |||||||
 B,,2 B,,2 E,4 |] %54
w: white. be white|
w: ël No- ël|
w: |

